X:0409
T:Highland Laddie
P:Cairney Mount
C:Aird's Collection, 1788
R:Reel (8x32)
B:RSCDS 4-9
Z:Anselm Lingnau <anselm@strathspey.org>
M:C
L:1/8
K:D
dB|"D"A2D2 F2A2|"G"BAGF "A"E2dB|"D"A2D2 "D7"F2A2|"G"Bc"D"dA F2"A"A2|
   "Bm"D2d2 "D"d2ef|"Em"e2E2 "A"[E3C3]D|"D"F2A2 "G"BcdB|"D"A2 "G"D2 "D"D2||
A2|"D"d3e defd|"Em"gfed "A"e2fe|"D"d2A2 "D7"F2A2|"G"Bc"D"dA F2"A"A2|
   "Bm"D2d2 "D"d2ef|"G"e2E2 "A"[E3C3]D|"D"F2A2 "G"BcdB|"D"A2 "G"D2 "D"D2|]
